Newaita-dark/.places-default/64/folder-unlocked.svg

<?xml version="1.0" encoding="UTF-8"?>
<svg xmlns="http://www.w3.org/2000/svg" xmlns:xlink="http://www.w3.org/1999/xlink" width="64px" height="64px" viewBox="0 0 64 64" version="1.1">
<defs>
<linearGradient id="linear0" gradientUnits="userSpaceOnUse" x1="254" y1="233.5" x2="254" y2="254.666672" gradientTransform="matrix(0.125012,0,0,0.125012,-0.00000763012,26.877574)">
<stop offset="0" style="stop-color:rgb(0%,0%,0%);stop-opacity:0.27451;"/>
<stop offset="1" style="stop-color:rgb(0%,0%,0%);stop-opacity:0;"/>
</linearGradient>
<radialGradient id="radial0" gradientUnits="userSpaceOnUse" cx="450.908936" cy="189.579361" fx="450.908936" fy="189.579361" r="21.166656" gradientTransform="matrix(0.000000348341,-0.156265,-0.281277,-0.000000203077,108.230425,127.190669)">
<stop offset="0" style="stop-color:rgb(0%,0%,0%);stop-opacity:0.313726;"/>
<stop offset="0.222222" style="stop-color:rgb(0%,0%,0%);stop-opacity:0.27451;"/>
<stop offset="1" style="stop-color:rgb(0%,0%,0%);stop-opacity:0;"/>
</radialGradient>
<radialGradient id="radial1" gradientUnits="userSpaceOnUse" cx="450.908936" cy="189.579361" fx="450.908936" fy="189.579361" r="21.166656" gradientTransform="matrix(-0.000000348341,0.156265,0.281277,0.000000203077,-44.724356,-15.054954)">
<stop offset="0" style="stop-color:rgb(0%,0%,0%);stop-opacity:0.313726;"/>
<stop offset="0.222222" style="stop-color:rgb(0%,0%,0%);stop-opacity:0.27451;"/>
<stop offset="1" style="stop-color:rgb(0%,0%,0%);stop-opacity:0;"/>
</radialGradient>
<radialGradient id="radial2" gradientUnits="userSpaceOnUse" cx="450.908936" cy="189.579361" fx="450.908936" fy="189.579361" r="21.166656" gradientTransform="matrix(-0.000000348341,-0.156265,0.281277,-0.000000203077,-44.724356,127.190669)">
<stop offset="0" style="stop-color:rgb(0%,0%,0%);stop-opacity:0.313726;"/>
<stop offset="0.222222" style="stop-color:rgb(0%,0%,0%);stop-opacity:0.27451;"/>
<stop offset="1" style="stop-color:rgb(0%,0%,0%);stop-opacity:0;"/>
</radialGradient>
<radialGradient id="radial3" gradientUnits="userSpaceOnUse" cx="450.908936" cy="189.579361" fx="450.908936" fy="189.579361" r="21.166656" gradientTransform="matrix(0.000000348341,0.156265,-0.281277,0.000000203077,108.230422,-15.054955)">
<stop offset="0" style="stop-color:rgb(0%,0%,0%);stop-opacity:0.313726;"/>
<stop offset="0.222222" style="stop-color:rgb(0%,0%,0%);stop-opacity:0.27451;"/>
<stop offset="1" style="stop-color:rgb(0%,0%,0%);stop-opacity:0;"/>
</radialGradient>
<linearGradient id="linear1" gradientUnits="userSpaceOnUse" x1="254" y1="-147.5" x2="254" y2="-31.083334" gradientTransform="matrix(0.125012,0,0,0.125012,0.00000249951,26.877563)">
<stop offset="0" style="stop-color:rgb(64.313728%,64.313728%,64.313728%);stop-opacity:0;"/>
<stop offset="1" style="stop-color:rgb(100%,100%,100%);stop-opacity:0.196078;"/>
</linearGradient>
<linearGradient id="linear2" gradientUnits="userSpaceOnUse" x1="254" y1="233.5" x2="254" y2="-105.166656" gradientTransform="matrix(0.125012,0,0,0.125012,-0.00000362479,26.877566)">
<stop offset="0" style="stop-color:rgb(34.509805%,34.509805%,34.509805%);stop-opacity:0;"/>
<stop offset="1" style="stop-color:rgb(98.039216%,98.039216%,98.039216%);stop-opacity:0.196078;"/>
</linearGradient>
</defs>
<g id="surface1">
<path style=" stroke:none;fill-rule:nonzero;fill:url(#linear0);" d="M 7.9375 56.066406 L 55.566406 56.066406 L 55.566406 58.714844 L 7.9375 58.714844 Z M 7.9375 56.066406 "/>
<path style=" stroke:none;fill-rule:nonzero;fill:url(#radial0);" d="M 55.566406 56.066406 L 60.859375 56.066406 L 60.859375 53.421875 L 55.566406 53.421875 Z M 55.566406 56.066406 "/>
<path style=" stroke:none;fill-rule:nonzero;fill:url(#radial1);" d="M 7.9375 56.066406 L 2.644531 56.066406 L 2.644531 58.714844 L 7.9375 58.714844 Z M 7.9375 56.066406 "/>
<path style=" stroke:none;fill-rule:nonzero;fill:url(#radial2);" d="M 7.9375 56.066406 L 2.644531 56.066406 L 2.644531 53.421875 L 7.9375 53.421875 Z M 7.9375 56.066406 "/>
<path style=" stroke:none;fill-rule:nonzero;fill:url(#radial3);" d="M 55.566406 56.066406 L 60.859375 56.066406 L 60.859375 58.714844 L 55.566406 58.714844 Z M 55.566406 56.066406 "/>
<path style=" stroke:none;fill-rule:nonzero;fill:rgb(63.137257%,53.333336%,49.803922%);fill-opacity:1;" d="M 14.554688 8.4375 L 57.550781 8.4375 C 59.015625 8.4375 60.199219 9.621094 60.199219 11.085938 L 60.199219 21.007812 C 60.199219 22.46875 59.015625 23.652344 57.550781 23.652344 L 14.554688 23.652344 C 13.09375 23.652344 11.90625 22.46875 11.90625 21.007812 L 11.90625 11.085938 C 11.90625 9.621094 13.09375 8.4375 14.554688 8.4375 Z M 14.554688 8.4375 "/>
<path style=" stroke:none;fill-rule:nonzero;fill:url(#linear1);" d="M 14.554688 8.4375 L 57.550781 8.4375 C 59.015625 8.4375 60.199219 9.621094 60.199219 11.085938 L 60.199219 21.007812 C 60.199219 22.46875 59.015625 23.652344 57.550781 23.652344 L 14.554688 23.652344 C 13.09375 23.652344 11.90625 22.46875 11.90625 21.007812 L 11.90625 11.085938 C 11.90625 9.621094 13.09375 8.4375 14.554688 8.4375 Z M 14.554688 8.4375 "/>
<path style=" stroke:none;fill-rule:nonzero;fill:rgb(100%,100%,100%);fill-opacity:0.392157;" d="M 14.554688 8.605469 C 13.085938 8.605469 11.90625 9.785156 11.90625 11.25 L 11.90625 11.582031 C 11.90625 10.113281 13.085938 8.933594 14.554688 8.933594 L 57.550781 8.933594 C 59.019531 8.933594 60.199219 10.113281 60.199219 11.582031 L 60.199219 11.25 C 60.199219 9.785156 59.019531 8.605469 57.550781 8.605469 Z M 14.554688 8.605469 "/>
<path style=" stroke:none;fill-rule:nonzero;fill:rgb(12.941177%,12.941177%,12.941177%);fill-opacity:1;" d="M 14.554688 8.25 C 12.988281 8.25 11.71875 9.519531 11.71875 11.085938 L 11.71875 21.007812 C 11.71875 22.574219 12.988281 23.839844 14.554688 23.839844 L 57.550781 23.839844 C 59.117188 23.839844 60.386719 22.574219 60.386719 21.007812 L 60.386719 11.085938 C 60.386719 9.519531 59.117188 8.25 57.550781 8.25 Z M 14.554688 8.625 L 57.550781 8.625 C 58.917969 8.625 60.011719 9.71875 60.011719 11.085938 L 60.011719 21.007812 C 60.011719 22.371094 58.917969 23.464844 57.550781 23.464844 L 14.554688 23.464844 C 13.1875 23.464844 12.09375 22.371094 12.09375 21.007812 L 12.09375 11.085938 C 12.09375 9.71875 13.1875 8.625 14.554688 8.625 Z M 14.554688 8.625 "/>
<path style=" stroke:none;fill-rule:nonzero;fill:rgb(73.725492%,66.666669%,64.313728%);fill-opacity:1;" d="M 5.292969 13.730469 C 3.828125 13.730469 2.644531 14.910156 2.644531 16.375 L 2.644531 53.421875 C 2.644531 54.886719 3.828125 56.066406 5.292969 56.066406 L 58.214844 56.066406 C 59.679688 56.066406 60.859375 54.886719 60.859375 53.421875 L 60.859375 20.34375 L 25.136719 20.34375 C 23.671875 20.34375 22.492188 19.164062 22.492188 17.699219 L 22.492188 13.730469 Z M 5.292969 13.730469 "/>
<path style=" stroke:none;fill-rule:nonzero;fill:url(#linear2);" d="M 5.292969 13.730469 C 3.828125 13.730469 2.644531 14.910156 2.644531 16.375 L 2.644531 53.421875 C 2.644531 54.886719 3.828125 56.066406 5.292969 56.066406 L 58.214844 56.066406 C 59.679688 56.066406 60.859375 54.886719 60.859375 53.421875 L 60.859375 20.34375 L 25.136719 20.34375 C 23.671875 20.34375 22.492188 19.164062 22.492188 17.699219 L 22.492188 13.730469 Z M 5.292969 13.730469 "/>
<path style=" stroke:none;fill-rule:nonzero;fill:rgb(0%,0%,0%);fill-opacity:0.196078;" d="M 5.292969 56.066406 C 3.828125 56.066406 2.644531 54.886719 2.644531 53.421875 L 2.644531 53.089844 C 2.644531 54.558594 3.828125 55.738281 5.292969 55.738281 L 58.214844 55.738281 C 59.679688 55.738281 60.859375 54.558594 60.859375 53.089844 L 60.859375 53.421875 C 60.859375 54.886719 59.679688 56.066406 58.214844 56.066406 Z M 5.292969 56.066406 "/>
<path style=" stroke:none;fill-rule:nonzero;fill:rgb(100%,100%,100%);fill-opacity:0.392157;" d="M 5.292969 13.894531 C 3.828125 13.894531 2.644531 15.074219 2.644531 16.542969 L 2.644531 16.871094 C 2.644531 15.40625 3.828125 14.226562 5.292969 14.226562 L 22.492188 14.226562 L 22.492188 13.894531 Z M 5.292969 13.894531 "/>
<path style=" stroke:none;fill-rule:nonzero;fill:rgb(100%,100%,100%);fill-opacity:0.392157;" d="M 24.972656 20.675781 C 23.507812 20.675781 22.328125 19.496094 22.328125 18.03125 L 22.328125 17.699219 C 22.328125 19.164062 23.507812 20.347656 24.972656 20.34375 L 60.859375 20.34375 L 60.859375 20.675781 Z M 24.972656 20.675781 "/>
<path style=" stroke:none;fill-rule:nonzero;fill:rgb(12.941177%,12.941177%,12.941177%);fill-opacity:1;" d="M 5.292969 13.542969 C 3.726562 13.542969 2.457031 14.808594 2.457031 16.375 L 2.457031 53.421875 C 2.457031 54.988281 3.726562 56.253906 5.292969 56.253906 L 58.214844 56.253906 C 59.78125 56.253906 61.046875 54.988281 61.046875 53.421875 L 61.046875 19.96875 L 25.136719 19.96875 C 23.773438 19.96875 22.679688 18.878906 22.679688 17.511719 L 22.679688 13.542969 Z M 5.292969 13.917969 L 22.304688 13.917969 L 22.304688 17.511719 C 22.304688 19.078125 23.570312 20.34375 25.136719 20.34375 L 60.671875 20.34375 L 60.671875 53.421875 C 60.671875 54.785156 59.578125 55.878906 58.214844 55.878906 L 5.292969 55.878906 C 3.925781 55.878906 2.832031 54.785156 2.832031 53.421875 L 2.832031 16.375 C 2.832031 15.011719 3.925781 13.917969 5.292969 13.917969 Z M 5.292969 13.917969 "/>
<path style=" stroke:none;fill-rule:nonzero;fill:rgb(55.29412%,43.137255%,38.82353%);fill-opacity:1;" d="M 31.753906 25.636719 C 28.089844 25.636719 25.136719 28.589844 25.136719 32.253906 L 25.136719 33.078125 L 25.144531 33.078125 C 25.140625 33.105469 25.136719 33.132812 25.136719 33.164062 C 25.136719 33.390625 25.320312 33.574219 25.550781 33.574219 L 27.371094 33.574219 C 27.597656 33.574219 27.785156 33.390625 27.785156 33.164062 C 27.785156 33.132812 27.78125 33.105469 27.777344 33.078125 L 27.785156 33.078125 L 27.785156 32.253906 C 27.785156 30.054688 29.554688 28.285156 31.753906 28.285156 C 33.953125 28.285156 35.722656 30.054688 35.722656 32.253906 L 35.722656 36.222656 L 23.152344 36.222656 C 22.785156 36.222656 22.492188 36.515625 22.492188 36.882812 L 22.492188 46.144531 C 22.492188 46.511719 22.785156 46.804688 23.152344 46.804688 L 40.351562 46.804688 C 40.71875 46.804688 41.015625 46.511719 41.015625 46.144531 L 41.015625 36.882812 C 41.015625 36.515625 40.71875 36.222656 40.351562 36.222656 L 38.367188 36.222656 L 38.367188 32.253906 C 38.367188 28.589844 35.417969 25.636719 31.753906 25.636719 Z M 31.753906 38.207031 C 32.851562 38.207031 33.738281 39.09375 33.738281 40.191406 C 33.738281 40.78125 33.480469 41.308594 33.074219 41.671875 L 33.074219 44.160156 C 33.074219 44.527344 32.78125 44.820312 32.414062 44.820312 L 31.089844 44.820312 C 30.726562 44.820312 30.429688 44.527344 30.429688 44.160156 L 30.429688 41.671875 C 30.023438 41.308594 29.769531 40.78125 29.769531 40.191406 C 29.769531 39.09375 30.652344 38.207031 31.753906 38.207031 Z M 31.753906 38.207031 "/>
<path style=" stroke:none;fill-rule:nonzero;fill:rgb(0%,0%,0%);fill-opacity:0.235294;" d="M 31.753906 25.636719 C 28.089844 25.636719 25.136719 28.589844 25.136719 32.253906 L 25.136719 32.75 C 25.136719 29.085938 28.089844 26.132812 31.753906 26.132812 C 35.417969 26.132812 38.367188 29.085938 38.367188 32.75 L 38.367188 32.253906 C 38.367188 28.589844 35.417969 25.636719 31.753906 25.636719 Z M 23.152344 36.222656 C 22.785156 36.222656 22.492188 36.515625 22.492188 36.882812 L 22.492188 37.378906 C 22.492188 37.011719 22.785156 36.71875 23.152344 36.71875 L 35.722656 36.71875 L 35.722656 36.222656 Z M 38.367188 36.222656 L 38.367188 36.71875 L 40.351562 36.71875 C 40.71875 36.71875 41.015625 37.011719 41.015625 37.378906 L 41.015625 36.882812 C 41.015625 36.515625 40.71875 36.222656 40.351562 36.222656 Z M 29.785156 40.441406 C 29.773438 40.519531 29.769531 40.601562 29.769531 40.6875 C 29.769531 41.277344 30.023438 41.804688 30.429688 42.167969 L 30.429688 41.671875 C 30.082031 41.363281 29.84375 40.929688 29.785156 40.441406 Z M 33.722656 40.441406 C 33.660156 40.929688 33.425781 41.363281 33.074219 41.671875 L 33.074219 42.167969 C 33.480469 41.804688 33.738281 41.277344 33.738281 40.6875 C 33.738281 40.601562 33.730469 40.519531 33.722656 40.441406 Z M 30.429688 44.160156 L 30.429688 44.65625 C 30.429688 45.023438 30.726562 45.316406 31.089844 45.316406 L 32.414062 45.316406 C 32.78125 45.316406 33.074219 45.023438 33.074219 44.65625 L 33.074219 44.160156 C 33.074219 44.527344 32.78125 44.820312 32.414062 44.820312 L 31.089844 44.820312 C 30.726562 44.820312 30.429688 44.527344 30.429688 44.160156 Z M 30.429688 44.160156 "/>
<path style=" stroke:none;fill-rule:nonzero;fill:rgb(100%,100%,100%);fill-opacity:0.392157;" d="M 31.753906 28.25 C 29.554688 28.25 27.785156 30.019531 27.785156 32.21875 L 27.785156 32.75 C 27.785156 30.550781 29.554688 28.78125 31.753906 28.78125 C 33.953125 28.78125 35.722656 30.550781 35.722656 32.75 L 35.722656 32.21875 C 35.722656 30.019531 33.953125 28.25 31.753906 28.25 Z M 25.136719 33.042969 L 25.136719 33.128906 C 25.136719 33.097656 25.140625 33.070312 25.144531 33.042969 Z M 25.136719 33.128906 L 25.136719 33.574219 L 25.144531 33.574219 C 25.140625 33.601562 25.136719 33.628906 25.136719 33.660156 C 25.136719 33.886719 25.320312 34.070312 25.550781 34.070312 L 27.371094 34.070312 C 27.597656 34.070312 27.785156 33.886719 27.785156 33.660156 C 27.785156 33.628906 27.78125 33.601562 27.777344 33.574219 L 27.785156 33.574219 L 27.785156 33.128906 C 27.785156 33.355469 27.597656 33.539062 27.371094 33.539062 L 25.550781 33.539062 C 25.320312 33.539062 25.136719 33.355469 25.136719 33.128906 Z M 27.785156 33.128906 L 27.785156 33.042969 L 27.777344 33.042969 C 27.78125 33.070312 27.785156 33.097656 27.785156 33.128906 Z M 31.753906 38.171875 C 30.652344 38.171875 29.769531 39.054688 29.769531 40.15625 C 29.769531 40.246094 29.773438 40.335938 29.785156 40.421875 C 29.917969 39.449219 30.742188 38.703125 31.753906 38.703125 C 32.761719 38.703125 33.589844 39.449219 33.71875 40.421875 C 33.730469 40.335938 33.738281 40.246094 33.738281 40.15625 C 33.738281 39.054688 32.851562 38.171875 31.753906 38.171875 Z M 22.492188 46.109375 L 22.492188 46.640625 C 22.492188 47.007812 22.785156 47.300781 23.152344 47.300781 L 40.351562 47.300781 C 40.71875 47.300781 41.015625 47.007812 41.015625 46.640625 L 41.015625 46.109375 C 41.015625 46.476562 40.71875 46.769531 40.351562 46.769531 L 23.152344 46.769531 C 22.785156 46.769531 22.492188 46.476562 22.492188 46.109375 Z M 22.492188 46.109375 "/>
<path style=" stroke:none;fill-rule:nonzero;fill:rgb(12.941177%,12.941177%,12.941177%);fill-opacity:1;" d="M 31.753906 25.449219 C 27.988281 25.449219 24.949219 28.488281 24.949219 32.253906 L 24.949219 33.078125 C 24.949219 33.09375 24.953125 33.105469 24.953125 33.121094 C 24.953125 33.132812 24.949219 33.148438 24.949219 33.164062 C 24.949219 33.492188 25.222656 33.761719 25.550781 33.761719 L 27.371094 33.761719 C 27.699219 33.761719 27.972656 33.492188 27.972656 33.164062 C 27.972656 33.148438 27.96875 33.132812 27.96875 33.117188 C 27.96875 33.105469 27.972656 33.09375 27.972656 33.078125 L 27.972656 32.253906 C 27.972656 30.15625 29.65625 28.472656 31.753906 28.472656 C 33.851562 28.472656 35.535156 30.15625 35.535156 32.253906 L 35.535156 36.035156 L 23.152344 36.035156 C 22.6875 36.035156 22.304688 36.417969 22.304688 36.882812 L 22.304688 46.144531 C 22.304688 46.613281 22.6875 46.992188 23.152344 46.992188 L 40.351562 46.992188 C 40.820312 46.992188 41.203125 46.613281 41.203125 46.144531 L 41.203125 36.882812 C 41.203125 36.417969 40.820312 36.035156 40.351562 36.035156 L 38.554688 36.035156 L 38.554688 32.253906 C 38.554688 28.488281 35.519531 25.449219 31.753906 25.449219 Z M 31.753906 25.824219 C 35.316406 25.824219 38.179688 28.6875 38.179688 32.253906 L 38.179688 36.222656 C 38.179688 36.324219 38.265625 36.410156 38.367188 36.410156 L 40.351562 36.410156 C 40.617188 36.410156 40.828125 36.617188 40.828125 36.882812 L 40.828125 46.144531 C 40.828125 46.410156 40.617188 46.617188 40.351562 46.617188 L 23.152344 46.617188 C 22.886719 46.617188 22.679688 46.410156 22.679688 46.144531 L 22.679688 36.882812 C 22.679688 36.617188 22.886719 36.410156 23.152344 36.410156 L 35.722656 36.410156 C 35.824219 36.410156 35.910156 36.324219 35.910156 36.222656 L 35.910156 32.253906 C 35.910156 29.953125 34.050781 28.097656 31.753906 28.097656 C 29.453125 28.097656 27.597656 29.953125 27.597656 32.253906 L 27.597656 33.027344 C 27.585938 33.054688 27.585938 33.085938 27.59375 33.117188 C 27.59375 33.132812 27.597656 33.148438 27.597656 33.164062 C 27.597656 33.292969 27.5 33.386719 27.371094 33.386719 L 25.550781 33.386719 C 25.421875 33.386719 25.324219 33.292969 25.324219 33.164062 C 25.324219 33.148438 25.328125 33.132812 25.328125 33.117188 C 25.335938 33.085938 25.335938 33.054688 25.324219 33.023438 L 25.324219 32.253906 C 25.324219 28.6875 28.1875 25.824219 31.753906 25.824219 Z M 31.753906 38.019531 C 30.554688 38.019531 29.582031 38.992188 29.582031 40.191406 C 29.582031 40.804688 29.835938 41.355469 30.242188 41.75 L 30.242188 44.160156 C 30.242188 44.628906 30.625 45.007812 31.089844 45.007812 L 32.414062 45.007812 C 32.882812 45.007812 33.261719 44.628906 33.261719 44.160156 L 33.261719 41.75 C 33.671875 41.355469 33.925781 40.804688 33.925781 40.191406 C 33.925781 38.992188 32.953125 38.019531 31.753906 38.019531 Z M 31.753906 38.394531 C 32.75 38.394531 33.550781 39.191406 33.550781 40.191406 C 33.550781 40.726562 33.320312 41.203125 32.949219 41.53125 C 32.910156 41.566406 32.886719 41.617188 32.886719 41.671875 L 32.886719 44.160156 C 32.886719 44.425781 32.679688 44.632812 32.414062 44.632812 L 31.089844 44.632812 C 30.824219 44.632812 30.617188 44.425781 30.617188 44.160156 L 30.617188 41.671875 C 30.617188 41.617188 30.59375 41.566406 30.554688 41.53125 C 30.1875 41.203125 29.957031 40.726562 29.957031 40.191406 C 29.957031 39.191406 30.753906 38.394531 31.753906 38.394531 Z M 31.753906 38.394531 "/>
</g>
</svg>

<svg xmlns="http://www.w3.org/2000/svg" width="64pt" height="64pt" viewBox="0 0 64 64"><defs><linearGradient id="a" gradientUnits="userSpaceOnUse" x1="254" y1="233.5" x2="254" y2="254.667" gradientTransform="translate(0 26.878) scale(.12501)"><stop offset="0" stop-opacity=".275"/><stop offset="1" stop-opacity="0"/></linearGradient><radialGradient id="b" gradientUnits="userSpaceOnUse" cx="450.909" cy="189.579" fx="450.909" fy="189.579" r="21.167" gradientTransform="matrix(0 -.15626 -.28128 0 108.23 127.19)"><stop offset="0" stop-opacity=".314"/><stop offset=".222" stop-opacity=".275"/><stop offset="1" stop-opacity="0"/></radialGradient><radialGradient id="c" gradientUnits="userSpaceOnUse" cx="450.909" cy="189.579" fx="450.909" fy="189.579" r="21.167" gradientTransform="matrix(0 .15626 .28128 0 -44.724 -15.055)"><stop offset="0" stop-opacity=".314"/><stop offset=".222" stop-opacity=".275"/><stop offset="1" stop-opacity="0"/></radialGradient><radialGradient id="d" gradientUnits="userSpaceOnUse" cx="450.909" cy="189.579" fx="450.909" fy="189.579" r="21.167" gradientTransform="matrix(0 -.15626 .28128 0 -44.724 127.19)"><stop offset="0" stop-opacity=".314"/><stop offset=".222" stop-opacity=".275"/><stop offset="1" stop-opacity="0"/></radialGradient><radialGradient id="e" gradientUnits="userSpaceOnUse" cx="450.909" cy="189.579" fx="450.909" fy="189.579" r="21.167" gradientTransform="matrix(0 .15626 -.28128 0 108.23 -15.055)"><stop offset="0" stop-opacity=".314"/><stop offset=".222" stop-opacity=".275"/><stop offset="1" stop-opacity="0"/></radialGradient><linearGradient id="f" gradientUnits="userSpaceOnUse" x1="254" y1="-147.5" x2="254" y2="-31.083" gradientTransform="translate(0 26.878) scale(.12501)"><stop offset="0" stop-color="#a4a4a4" stop-opacity="0"/><stop offset="1" stop-color="#fff" stop-opacity=".196"/></linearGradient><linearGradient id="g" gradientUnits="userSpaceOnUse" x1="254" y1="233.5" x2="254" y2="-105.167" gradientTransform="translate(0 26.878) scale(.12501)"><stop offset="0" stop-color="#585858" stop-opacity="0"/><stop offset="1" stop-color="#fafafa" stop-opacity=".196"/></linearGradient><linearGradient id="h" gradientUnits="userSpaceOnUse" x1="960" y1="255.118" x2="960" y2="1695.118"><stop offset="0" stop-color="#a4a4a4" stop-opacity="0"/><stop offset="1" stop-color="#fff" stop-opacity=".196"/></linearGradient></defs><path d="M7.938 56.066h47.628v2.649H7.937zm0 0" fill="url(#a)"/><path d="M55.566 56.066h5.293v-2.644h-5.293zm0 0" fill="url(#b)"/><path d="M7.938 56.066H2.644v2.649h5.292zm0 0" fill="url(#c)"/><path d="M7.938 56.066H2.644v-2.644h5.292zm0 0" fill="url(#d)"/><path d="M55.566 56.066h5.293v2.649h-5.293zm0 0" fill="url(#e)"/><path d="M14.555 8.438H57.55a2.646 2.646 0 0 1 2.648 2.648v9.922a2.645 2.645 0 0 1-2.648 2.644H14.555a2.647 2.647 0 0 1-2.649-2.644v-9.922a2.648 2.648 0 0 1 2.649-2.649zm0 0" fill="#8d6e63"/><path d="M14.555 8.438H57.55a2.646 2.646 0 0 1 2.648 2.648v9.922a2.645 2.645 0 0 1-2.648 2.644H14.555a2.647 2.647 0 0 1-2.649-2.644v-9.922a2.648 2.648 0 0 1 2.649-2.649zm0 0" fill="url(#f)"/><path d="M14.555 8.438a2.64 2.64 0 0 0-2.649 2.648v.328a2.64 2.64 0 0 1 2.649-2.644H57.55a2.64 2.64 0 0 1 2.648 2.644v-.328a2.64 2.64 0 0 0-2.648-2.649zm0 0" fill="#e6e6e6" fill-opacity=".588"/><path d="M14.555 8.25a2.836 2.836 0 0 0-2.836 2.836v9.922a2.832 2.832 0 0 0 2.836 2.832H57.55a2.832 2.832 0 0 0 2.836-2.832v-9.922A2.836 2.836 0 0 0 57.55 8.25zm0 .375H57.55a2.45 2.45 0 0 1 2.46 2.46v9.923a2.45 2.45 0 0 1-2.46 2.457H14.555a2.45 2.45 0 0 1-2.461-2.457v-9.922a2.45 2.45 0 0 1 2.46-2.461zm0 0" fill="#212121"/><path d="M5.293 13.73a2.642 2.642 0 0 0-2.648 2.645v37.047a2.642 2.642 0 0 0 2.648 2.644h52.922a2.639 2.639 0 0 0 2.644-2.644V20.344H25.137a2.639 2.639 0 0 1-2.645-2.645V13.73zm0 0" fill="#bcaaa4"/><path d="M5.293 13.73a2.642 2.642 0 0 0-2.648 2.645v37.047a2.642 2.642 0 0 0 2.648 2.644h52.922a2.639 2.639 0 0 0 2.644-2.644V20.344H25.137a2.639 2.639 0 0 1-2.645-2.645V13.73zm0 0" fill="url(#g)"/><path d="M5.293 56.066a2.642 2.642 0 0 1-2.648-2.644v-.332a2.643 2.643 0 0 0 2.648 2.648h52.922a2.64 2.64 0 0 0 2.644-2.648v.332a2.639 2.639 0 0 1-2.644 2.644zm0 0" fill-opacity=".196"/><path d="M5.293 13.73a2.642 2.642 0 0 0-2.648 2.645v.332a2.642 2.642 0 0 1 2.648-2.645h17.2v-.332zm0 0M24.973 20.512a2.64 2.64 0 0 1-2.645-2.649v-.328a2.637 2.637 0 0 0 2.645 2.645h35.886v.332zm0 0" fill="#e6e6e6" fill-opacity=".937"/><path d="M5.293 13.543a2.832 2.832 0 0 0-2.836 2.832v37.047a2.832 2.832 0 0 0 2.836 2.832h52.922a2.83 2.83 0 0 0 2.832-2.832V19.969h-35.91a2.447 2.447 0 0 1-2.457-2.457v-3.969zm0 .375h17.012v3.594a2.83 2.83 0 0 0 2.832 2.832h35.535v33.078a2.449 2.449 0 0 1-2.457 2.457H5.293a2.45 2.45 0 0 1-2.461-2.457V16.375a2.45 2.45 0 0 1 2.461-2.457zm0 0" fill="#212121"/><path d="M31.754 25.637a6.605 6.605 0 0 0-6.617 6.617h2.648a3.96 3.96 0 0 1 3.969-3.969 3.96 3.96 0 0 1 3.969 3.969v3.969h-12.57a.657.657 0 0 0-.66.66v9.262c0 .367.292.66.66.66h17.199a.66.66 0 0 0 .664-.66v-9.262a.66.66 0 0 0-.664-.66h-1.985v-3.97a6.602 6.602 0 0 0-6.613-6.616zm0 0" fill="#8d6e63"/><path d="M960.026 775.084c-110.776 0-200.06 89.282-200.06 200.06h80.072c0-66.49 53.499-119.99 119.988-119.99 66.49 0 119.989 53.5 119.989 119.99v119.988H699.973c-11.102 0-19.96 8.857-19.96 19.958v280.013c0 11.101 8.858 19.959 19.96 19.959h519.99c11.1 0 20.076-8.858 20.076-19.959V1115.09c0-11.1-8.975-19.958-20.077-19.958h-59.994V975.143c0-110.777-89.165-200.06-199.942-200.06zm0 0" transform="scale(.03308)" fill="url(#h)" stroke-width="11.339" stroke-linecap="round" stroke-linejoin="round" stroke="#212121"/></svg>
